X:1
T:Title
%%score { ( 1 3 ) | ( 2 4 ) }
L:1/8
M:6/8
K:Eb
V:1 treble nm="Grand Piano"
V:3 treble 
V:2 bass 
V:4 bass 
V:1
 z3 z2[Q:1/4=78] B | [Ge][Gd][Gc] BAG | BE[DF] G2 B | ccc B2 G | D2 E F2 B | %5
 [Ge][_Gd][Gc] [=GB]AG |[M:5/8] BE[DF] [EG]2 |[M:1/8] [Fe] |[M:3/4] [Fd][Fc] [FB] [Fd]2 [Ec] | %9
 [DB]4- [DB][DB] | [FA][GB] [Ac][Ac] [GB][FA] | [EG][EG] [FA] [GB]2 [EG] | %12
 [DF][EG] [FA][Ac] [GB][FA] |[M:7/8] GeG [DF]3 B |[M:3/4] ee dc cB | %15
[M:13/16] A[DB][DA][EG]-<[EG][Ec]3/2 |[M:3/4] [EB][Ee] [CFA] [B,EG]2 [A,DF] | %17
[M:5/8] [G,E]-[G,E]- [G,E]3 |[M:1/8] B |[M:3/4] A2 [DB]G FE | G2 G[Ge] [Gd][Gc] | B2 Bc =Bc | %22
[M:5/8] d2- [Bd-] [=Ad]2 |[M:1/8] [Ad] |[M:3/4] [Ge]2 [Ge][_Ge] [Gd][Gc] | %25
[M:15/16] [FB]->[FB][DA] [EG]3 [Ec]3/2 |[M:3/4] [EB][Ee] [CFA] [B,EG]2 [A,DF] |[M:5/8] E- E3 z |] %28
V:2
 z3 z2 B, | [E,B,][E,B,][E,B,] [E,G,E][E,CE][E,B,E] | [E,G,E][C,G,][B,,B,] [E,B,E]2 [G,B,E] | %3
 [A,E][A,E][A,E] [G,B,E]2 [E,B,E] | [B,,B,]2 [C,=A,] [D,B,]2 B, | %5
 [E,B,][E,=A,][E,A,] [E,B,][E,CE][E,B,E] |[M:5/8] [E,G,E][C,G,][B,,B,] [E,B,]2 |[M:1/8] [C,=A,] | %8
[M:3/4] [B,,B,][C,=A,] [D,B,] [F,B,]2 [F,A,] | [B,,B,]4- [B,,B,][B,,B,] | %10
 [B,,B,][B,,B,] [B,,B,][B,,B,] [B,,B,][B,,B,] | [E,B,][E,B,] [E,B,] [E,B,]2 [E,B,] | %12
 [B,,B,][B,,B,] [B,,B,][B,,B,] [B,,B,][B,,B,] | %13
[M:7/8] [E,B,E][G,B,E][E,B,E] [B,,B,]3[K:treble] [A,B,D] | %14
[M:3/4] [G,B,E][G,B,E] [G,=B,F][A,CE][K:bass] [A,CE][G,C=E] | %15
[M:13/16] [F,CF][B,,B,][B,,B,][E,B,]-<[E,B,][A,,A,]3/2 |[M:3/4] [B,,G,][C,G,] A,, B,,2 B,, | %17
[M:5/8] E,-E,- E,3 |[M:1/8] B, |[M:3/4] [F,B,D]2 [B,,B,][E,B,E] [E,A,E][E,G,] | %20
 [E,B,E]2 [E,B,E][C,C] [D,=B,][E,C] | [F,DF]2 [F,DF] [F,=A,E]2 [F,A,E] | %22
[M:5/8] [B,,B,]-[B,,B,]- [B,,B,]3 |[M:1/8] [B,,B,] |[M:3/4] [E,B,]2 [E,B,][E,=A,] [E,A,][E,A,] | %25
[M:15/16] [D,B,]->[D,B,][B,,B,] [E,B,]3 [A,,A,]3/2 |[M:3/4] [B,,G,][C,G,] A,, B,,2 B,, | %27
[M:5/8] z2 A, G, z |] %28
V:3
 x6 | x6 | x6 | x6 | F3 z3 | x6 |[M:5/8] x5 |[M:1/8] x |[M:3/4] x6 | x6 | x6 | x6 | x6 | %13
[M:7/8] x7 |[M:3/4] x6 |[M:13/16] x13/2 |[M:3/4] x6 |[M:5/8] x5 |[M:1/8] x |[M:3/4] x6 | x6 | x6 | %22
[M:5/8] D2 z z2 |[M:1/8] x |[M:3/4] x6 |[M:15/16] x15/2 |[M:3/4] x6 |[M:5/8] G,2 C B, z |] %28
V:4
 x6 | x6 | x6 | x6 | x6 | x6 |[M:5/8] x5 |[M:1/8] x |[M:3/4] x6 | x6 | x6 | x6 | x6 | %13
[M:7/8] x6[K:treble] x |[M:3/4] x4[K:bass] x2 |[M:13/16] x13/2 |[M:3/4] x6 |[M:5/8] x5 |[M:1/8] x | %19
[M:3/4] x6 | x6 | x6 |[M:5/8] x5 |[M:1/8] x |[M:3/4] x6 |[M:15/16] x15/2 |[M:3/4] x6 | %27
[M:5/8] E,- E,3 z |] %28

